!!!OTL: "Fruehlingssieg" TRARIRO DER SUMMER ISCH DO
!!!ARE: Europa, Mitteleuropa, Deutschland, Franken
!!!SCT: Z1259
!!!YEM: Copyright 1995, estate of Helmut Schaffrath.
**kern
*ICvox
*Ivox
*M2/4
*k[b-e-]
*B-:
=1
{4b-
4dd
=2
4cc
8r}
{8f
=3
8g
8f
8g
8a
=4
4.b-}
{8f
=5
8f
8dd
8dd
8cc
=6
8a
8f
8f}
{8f
=7
8g
8a
8b-
8cc
=8
4f
8f}
{8f
=9
8f
8dd
8dd
8cc
=10
8a
8f
8f}
{8f
=11
8g
8a
8b-
8cc
=12
4f
8f
8r}
=13
{4b-
4dd
=14
4ff
8r}
{8b-
=15
16b-
16a
16b-
16cc
8dd
8cc
=16
4b-
4r}
==
!!!AGN: Natur und Welt, Brauchtums - Lied
!!!ONB: ESAC (Essen Associative Code) Database: ZUCCAL
!!!AMT: simple duple
!!!AIN: vox
!!!EED: Helmut Schaffrath
!!!EEV: 1.0
*-
